_site/images/features/icons/circle-feather.svg

<?xml version="1.0" encoding="UTF-8"?>
<svg width="42px" height="42px" viewBox="0 0 42 42" version="1.1" xmlns="http://www.w3.org/2000/svg" xmlns:xlink="http://www.w3.org/1999/xlink">
    <!-- Generator: Sketch 52.6 (67491) - http://www.bohemiancoding.com/sketch -->
    <title>Group 6</title>
    <desc>Created with Sketch.</desc>
    <g id="Landing-page" stroke="none" stroke-width="1" fill="none" fill-rule="evenodd">
        <g id="1.3--Features" transform="translate(-245.000000, -1423.000000)" fill="#FF647C">
            <g id="solutions" transform="translate(0.000000, 468.000000)">
                <g id="Group-10" transform="translate(245.000000, 955.000000)">
                    <g id="Group-6">
                        <circle id="Oval" fill-opacity="0.3" cx="21" cy="21" r="21"></circle>
                        <g id="quill" transform="translate(12.000000, 11.000000)" fill-rule="nonzero" stroke="#FF647C" stroke-width="0.5">
                            <path d="M18.9939442,0.510560102 C18.9942411,0.510226114 18.9704908,0.362677537 18.9363126,0.284450072 C18.832442,0.0450547313 18.5537838,-0.0651613842 18.3118273,0.0396738098 C10.1011894,3.62533432 3.26933249,10.4682707 0.0357991446,18.3438616 C-0.0639522456,18.5870792 0.0519419477,18.864475 0.294195324,18.964523 C0.353088723,18.9885702 0.414208715,19 0.47436385,19 C0.660581289,19 0.837595475,18.8885222 0.912965666,18.7058306 C1.22138598,17.9543571 1.57322487,17.2159091 1.94721836,16.4856624 C1.95894509,16.487889 1.9687421,16.4961274 1.98046883,16.49802 C1.98046883,16.49802 2.12709001,16.5201745 2.40860565,16.5201745 C3.58313374,16.5201745 7.85882419,16.0863238 13.5604994,10.5059743 C13.8309191,10.2415669 13.9626593,9.89544378 13.9319694,9.53124817 C13.8927071,9.06637366 13.6156075,8.71646533 13.2428758,8.40136599 C13.5554153,8.40737778 13.8654684,8.41309269 14.1466501,8.41309269 C15.113437,8.41309269 15.7252678,8.37509225 16.0653429,7.84972877 C16.4346234,7.2793882 19.1446846,2.99168443 18.9939442,0.510560102 Z M15.2695954,7.33260366 C15.2021297,7.43677088 14.7407424,7.46274774 14.1469841,7.46274774 C13.5602025,7.46274774 12.8442042,7.43740174 12.2513737,7.43740174 C11.6465196,7.43740174 11.1699543,7.46367549 11.0892032,7.57006929 C10.6164232,8.19232647 13.5294755,9.20820733 12.8977167,9.82634532 C7.48579555,15.1233244 3.55463334,15.5637807 2.43361772,15.5691987 C5.82705759,9.46727087 11.4362549,4.27419923 18.0204775,1.22243746 C17.8067617,2.65725089 16.7943667,4.97813509 15.2695954,7.33260366 Z" id="Shape"></path>
                        </g>
                    </g>
                </g>
            </g>
        </g>
    </g>
</svg>

<svg height="42" viewBox="0 0 42 42" width="42" xmlns="http://www.w3.org/2000/svg"><g fill="#ff647c" fill-rule="evenodd"><circle cx="21" cy="21" fill-opacity=".3" r="21"/><path d="m18.9939442.5105601c.0002969-.00033399-.0234534-.14788256-.0576316-.22611003-.1038706-.23939534-.3825288-.34961145-.6244853-.24477626-8.2106379 3.58566051-15.04249481 10.42859689-18.27602816 18.30418779-.09975139.2432176.01614281.5206134.25839618.6206614.0588934.0240472.1200134.035477.18016853.035477.18621744 0 .36323163-.1114778.43860182-.2941694.30842031-.7514735.6602592-1.4899215 1.03425269-2.2201682.01172673.0022266.02152374.010465.03325047.0123576 0 0 .14662118.0221545.42813682.0221545 1.17452809 0 5.45021854-.4338507 11.15189375-6.0142002.2704197-.2644074.4021599-.61053052.37147-.97472613-.0392623-.46487451-.3163619-.81478284-.6890936-1.12988218.3125395.00601179.6225926.0117267.9037743.0117267.9667869 0 1.5786177-.03800044 1.9186928-.56336392.3692805-.57034057 3.0793417-4.85804434 2.9286013-7.33916867zm-3.7243488 6.82204356c-.0674657.10416722-.528853.13014408-1.1226113.13014408-.5867816 0-1.3027799-.025346-1.8956104-.025346-.6048541 0-1.0814194.02627375-1.1621705.13266755-.47278.62225718 2.4402723 1.63813804 1.8085135 2.25627603-5.41192115 5.29697908-9.34308336 5.73743538-10.46409898 5.74285338 3.39343987-6.10192783 9.00263718-11.29499947 15.58685978-14.34676124-.2137158 1.43481343-1.2261108 3.75569763-2.7508821 6.1101662z" fill-rule="nonzero" stroke="#ff647c" stroke-width=".5" transform="translate(12 11)"/></g></svg>
